themes/best-bc/assets/vector-icons/best-logo/Best-v1-white.svg

<svg height="72" viewBox="0 0 187 72" width="187" xmlns="http://www.w3.org/2000/svg" xmlns:xlink="http://www.w3.org/1999/xlink"><mask id="a" fill="#fff"><path d="m147.727876.59273093h39.125425v50.38756837h-39.125425z" fill="#fff" fill-rule="evenodd"/></mask><g fill="#fff" fill-rule="evenodd"><path d="m72.3351224 62.7728633v9.1864748h64.0788396c-10.071064-3.6010359-30.155175-8.6861007-64.0788396-9.1864748"/><path d="m0 66.4427914v5.5165467h63.0956648v-9.249151c-26.6130526.2978417-50.0528033 1.5513669-63.0956648 3.7326043"/><path d="m20.4321069 41.8657727c4.2238172 0 6.8915457-2.8157698 6.8915457-6.9648346 0-4.0755108-2.7418033-6.8912805-7.484144-6.8912805h-8.9666759v13.8561151zm-1.5560886-22.6737842c3.3349197 0 5.5576814-1.8528345 5.5576814-4.7431943 0-2.8893237-1.8523878-4.74215823-5.0386399-4.74215823h-8.5222271v9.48535253zm-18.37728257-18.59930936h19.48892247c9.4111246 0 14.6719889 5.92834532 14.6719889 13.04184176 0 4.6680863-2.7418033 7.8542158-7.1137701 9.2621007 6.8915457 1.6301007 10.2259474 6.2241151 10.2259474 12.5228201 0 8.965813-6.3725042 15.5608058-16.8952687 15.5608058h-20.37781997z"/><path d="m53.1069122.59283453h33.3455706v9.11395684h-22.9714737v16.00575543h20.2296704v8.891741h-20.2296704v7.2616403h24.0090388v9.1139568h-34.3831357z"/><path d="m100.527729 41.0508777 8.447635-4.8903022c2.223279 3.6305612 5.112714 6.2987051 10.225947 6.2987051 4.297892 0 7.039695-2.1496403 7.039695-5.113036 0-3.5575252-2.815878-4.8167482-7.558218-6.8912806l-2.593654-1.1115971c-7.484662-3.1861295-12.449227-7.1880863-12.449227-15.6348777 0-7.78066186 5.928573-13.7084892 15.190512-13.7084892 6.595765 0 11.338105 2.29726619 14.746582 8.29864748l-8.076743 5.18762592c-1.778831-3.1861295-3.705293-4.44638851-6.669839-4.44638851-3.037584 0-4.964047 1.92690651-4.964047 4.44638851 0 3.1120575 1.926463 4.3717985 6.372504 6.298187l2.593654 1.1115972c8.818008 3.779223 13.782573 7.632 13.782573 16.3020431 0 9.3361727-7.335994 14.4486907-17.19105 14.4486907-9.633867 0-15.858221-4.5940144-18.896324-10.5959137"/><path d="m162.103566 9.70668777h-14.37569v-9.11395684h39.125477v9.11395684h-14.376208v41.27361153h-10.373579z" mask="url(#a)"/></g></svg>

<?xml version="1.0" encoding="UTF-8"?>
<svg width="187px" height="72px" viewBox="0 0 187 72" version="1.1" xmlns="http://www.w3.org/2000/svg" xmlns:xlink="http://www.w3.org/1999/xlink">
    <!-- Generator: Sketch 55.1 (78136) - https://sketchapp.com -->
    <title>icons/BEST/Best-v1-white</title>
    <desc>Created with Sketch.</desc>
    <defs>
        <polygon id="path-1" points="147.727876 0.592730935 186.853301 0.592730935 186.853301 50.9802993 147.727876 50.9802993"></polygon>
    </defs>
    <g id="icons/BEST/Best-v1-white" stroke="none" stroke-width="1" fill="none" fill-rule="evenodd">
        <g id="Group">
            <path d="M72.3351224,62.7728633 L72.3351224,71.9593381 L136.413962,71.9593381 C126.342898,68.3583022 106.258787,63.2732374 72.3351224,62.7728633" id="Fill-1" fill="#FFFFFF"></path>
            <path d="M1.42108547e-13,66.4427914 L1.42108547e-13,71.9593381 L63.0956648,71.9593381 L63.0956648,62.7101871 C36.4826122,63.0080288 13.0428615,64.261554 1.42108547e-13,66.4427914" id="Fill-3" fill="#FFFFFF"></path>
            <path d="M20.4321069,41.8657727 C24.6559241,41.8657727 27.3236526,39.0500029 27.3236526,34.9009381 C27.3236526,30.8254273 24.5818493,28.0096576 19.8395086,28.0096576 L10.8728327,28.0096576 L10.8728327,41.8657727 L20.4321069,41.8657727 Z M18.8760183,19.1919885 C22.210938,19.1919885 24.4336997,17.339154 24.4336997,14.4487942 C24.4336997,11.5594705 22.5813119,9.70663597 19.3950598,9.70663597 L10.8728327,9.70663597 L10.8728327,19.1919885 L18.8760183,19.1919885 Z M0.498735734,0.592679137 L19.9876582,0.592679137 C29.3987828,0.592679137 34.6596471,6.52102446 34.6596471,13.6345209 C34.6596471,18.3026072 31.9178438,21.4887367 27.545877,22.8966216 C34.4374227,24.5267223 37.7718244,29.1207367 37.7718244,35.4194417 C37.7718244,44.3852547 31.3993202,50.9802475 20.8765557,50.9802475 L0.498735734,50.9802475 L0.498735734,0.592679137 Z" id="Fill-5" fill="#FFFFFF"></path>
            <polygon id="Fill-7" fill="#FFFFFF" points="53.1069122 0.592834532 86.4524828 0.592834532 86.4524828 9.70679137 63.4810091 9.70679137 63.4810091 25.7125468 83.7106795 25.7125468 83.7106795 34.6042878 63.4810091 34.6042878 63.4810091 41.8659281 87.4900479 41.8659281 87.4900479 50.9798849 53.1069122 50.9798849"></polygon>
            <path d="M100.527729,41.0508777 L108.975364,36.1605755 C111.198643,39.7911367 114.088078,42.4592806 119.201311,42.4592806 C123.499203,42.4592806 126.241006,40.3096403 126.241006,37.3462446 C126.241006,33.7887194 123.425128,32.5294964 118.682788,30.454964 L116.089134,29.3433669 C108.604472,26.1572374 103.639907,22.1552806 103.639907,13.7084892 C103.639907,5.92782734 109.56848,-7.10542736e-14 118.830419,-7.10542736e-14 C125.426184,-7.10542736e-14 130.168524,2.29726619 133.577001,8.29864748 L125.500258,13.4862734 C123.721427,10.3001439 121.794965,9.03988489 118.830419,9.03988489 C115.792835,9.03988489 113.866372,10.9667914 113.866372,13.4862734 C113.866372,16.5983309 115.792835,17.8580719 120.238876,19.7844604 L122.83253,20.8960576 C131.650538,24.6752806 136.615103,28.5280576 136.615103,37.1981007 C136.615103,46.5342734 129.279109,51.6467914 119.424053,51.6467914 C109.790186,51.6467914 103.565832,47.052777 100.527729,41.0508777" id="Fill-9" fill="#FFFFFF"></path>
            <mask id="mask-2" fill="white">
                <use xlink:href="#path-1"></use>
            </mask>
            <g id="Clip-12"></g>
            <polygon id="Fill-11" fill="#FFFFFF" mask="url(#mask-2)" points="162.103566 9.70668777 147.727876 9.70668777 147.727876 0.592730935 186.853353 0.592730935 186.853353 9.70668777 172.477145 9.70668777 172.477145 50.9802993 162.103566 50.9802993"></polygon>
        </g>
    </g>
</svg>
